app/assets/images/payment_icons/lhv.svg

<?xml version="1.0" encoding="UTF-8" standalone="no"?>
<svg
   xmlns:sketch="http://www.bohemiancoding.com/sketch/ns"
   xmlns:dc="http://purl.org/dc/elements/1.1/"
   xmlns:cc="http://creativecommons.org/ns#"
   xmlns:rdf="http://www.w3.org/1999/02/22-rdf-syntax-ns#"
   xmlns:svg="http://www.w3.org/2000/svg"
   xmlns="http://www.w3.org/2000/svg"
   xmlns:xlink="http://www.w3.org/1999/xlink"
   xmlns:sodipodi="http://sodipodi.sourceforge.net/DTD/sodipodi-0.dtd"
   xmlns:inkscape="http://www.inkscape.org/namespaces/inkscape"
   width="38"
   height="24"
   viewBox="0 0 38 24"
   version="1.1"
   id="svg2"
   inkscape:version="0.92pre1 15099"
   sodipodi:docname="lhv.svg">
  <metadata
     id="metadata20">
    <rdf:RDF>
      <cc:Work
         rdf:about="">
        <dc:format>image/svg+xml</dc:format>
        <dc:type
           rdf:resource="http://purl.org/dc/dcmitype/StillImage" />
        <dc:title>logo</dc:title>
      </cc:Work>
    </rdf:RDF>
  </metadata>
  <sodipodi:namedview
     pagecolor="#ffffff"
     bordercolor="#666666"
     borderopacity="1"
     objecttolerance="10"
     gridtolerance="10"
     guidetolerance="10"
     inkscape:pageopacity="0"
     inkscape:pageshadow="2"
     inkscape:window-width="1920"
     inkscape:window-height="1017"
     id="namedview18"
     showgrid="false"
     inkscape:zoom="3.9863014"
     inkscape:cx="17.360659"
     inkscape:cy="20"
     inkscape:window-x="-8"
     inkscape:window-y="1072"
     inkscape:window-maximized="1"
     inkscape:current-layer="svg2"
     inkscape:pagecheckerboard="true" />
  <!-- Generator: Sketch 3.2 (9961) - http://www.bohemiancoding.com/sketch -->
  <title
     id="title4">logo</title>
  <desc
     id="desc6">Created with Sketch.</desc>
  <rect
     style="fill:#ffffff;stroke-width:1.01975715"
     id="rect16"
     width="38"
     height="24"
     x="0"
     y="-1.2212453e-015" />
  <defs
     id="defs8">
    <linearGradient
       x1="0.5"
       y1="0.024254626"
       x2="0.5"
       y2="1"
       id="linearGradient-1">
      <stop
         stop-color="#797979"
         offset="0%"
         id="stop11" />
      <stop
         stop-color="#131313"
         offset="100%"
         id="stop13" />
    </linearGradient>
    <linearGradient
       inkscape:collect="always"
       xlink:href="#linearGradient-1"
       id="linearGradient8080"
       x1="22.197973"
       y1="12.586867"
       x2="22.197973"
       y2="55.906006"
       gradientTransform="scale(1.6442943,0.60816364)"
       gradientUnits="userSpaceOnUse" />
    <linearGradient
       inkscape:collect="always"
       xlink:href="#linearGradient-1"
       id="linearGradient8082"
       x1="22.197973"
       y1="12.586867"
       x2="22.197973"
       y2="55.906006"
       gradientTransform="scale(1.6442943,0.60816364)"
       gradientUnits="userSpaceOnUse" />
  </defs>
  <g
     id="Page-1"
     sketch:type="MSPage"
     transform="matrix(0.52054795,0,0,0.52054795,0,1.5556655)"
     style="fill:none;fill-rule:evenodd;stroke:none;stroke-width:1">
    <g
       id="logo"
       sketch:type="MSArtboardGroup"
       style="fill:url(#linearGradient8082)">
      <path
         d="M 67.071926,7 61.482599,20.987952 60.805104,22.614458 60.12761,20.987952 55.215777,7 37.770302,7 36.24594,17.572289 l -8.299304,0 L 29.470998,7 19.139211,7 l 0,22.608434 -11.5174013,0 L 10.839907,7 0,7 l 0,27 25.74478,0 1.693735,-12.524096 8.299304,0 L 34.044083,34 42.851508,34 46.408353,10.903615 54.030162,34 61.821346,34 73,7 l -5.928074,0 0,0 z"
         id="Fill-508"
         sketch:type="MSShapeGroup"
         style="fill:url(#linearGradient8080)"
         inkscape:connector-curvature="0" />
    </g>
  </g>
</svg>

<svg xmlns="http://www.w3.org/2000/svg" xmlns:xlink="http://www.w3.org/1999/xlink" width="38" height="24" viewBox="0 0 38 24"><title>logo</title><path fill="#fff" stroke-width="1.02" d="M0 0h38v24H0z"/><defs><linearGradient x1=".5" y1=".024" x2=".5" y2="1" id="a"><stop stop-color="#797979" offset="0%"/><stop stop-color="#131313" offset="100%"/></linearGradient><linearGradient xlink:href="#a" id="c" x1="22.198" y1="12.587" x2="22.198" y2="55.906" gradientTransform="scale(1.6443 .60816)" gradientUnits="userSpaceOnUse"/><linearGradient xlink:href="#a" id="b" x1="22.198" y1="12.587" x2="22.198" y2="55.906" gradientTransform="scale(1.6443 .60816)" gradientUnits="userSpaceOnUse"/></defs><path d="M67.072 7l-5.59 13.988-.677 1.626-.677-1.626L55.216 7H37.77l-1.524 10.572h-8.3L29.472 7H19.139v22.608H7.622L10.84 7H0v27h25.745l1.694-12.524h8.299L34.044 34h8.808l3.556-23.096L54.03 34h7.791L73 7h-5.928z" fill="url(#c)" transform="matrix(.52055 0 0 .52055 0 1.556)" fill-rule="evenodd"/></svg>
